icons/modern/woozy-face.svg

<svg width="32" height="32" viewBox="0 0 32 32" fill="none" xmlns="http://www.w3.org/2000/svg">
<path d="M15.9989 29.9978C25.3333 29.9978 29.9978 23.7303 29.9978 15.9989C29.9978 8.26751 25.3333 2 15.9989 2C6.66443 2 2 8.26751 2 15.9989C2 23.7303 6.66443 29.9978 15.9989 29.9978Z" fill="url(#paint0_radial_31_136)"/>
<path d="M15.9989 29.9978C25.3333 29.9978 29.9978 23.7303 29.9978 15.9989C29.9978 8.26751 25.3333 2 15.9989 2C6.66443 2 2 8.26751 2 15.9989C2 23.7303 6.66443 29.9978 15.9989 29.9978Z" fill="url(#paint1_radial_31_136)"/>
<path d="M15.9989 29.9978C25.3333 29.9978 29.9978 23.7303 29.9978 15.9989C29.9978 8.26751 25.3333 2 15.9989 2C6.66443 2 2 8.26751 2 15.9989C2 23.7303 6.66443 29.9978 15.9989 29.9978Z" fill="url(#paint2_radial_31_136)"/>
<path d="M15.9989 29.9978C25.3333 29.9978 29.9978 23.7303 29.9978 15.9989C29.9978 8.26751 25.3333 2 15.9989 2C6.66443 2 2 8.26751 2 15.9989C2 23.7303 6.66443 29.9978 15.9989 29.9978Z" fill="url(#paint3_radial_31_136)" fill-opacity="0.6"/>
<path d="M15.9989 29.9978C25.3333 29.9978 29.9978 23.7303 29.9978 15.9989C29.9978 8.26751 25.3333 2 15.9989 2C6.66443 2 2 8.26751 2 15.9989C2 23.7303 6.66443 29.9978 15.9989 29.9978Z" fill="url(#paint4_radial_31_136)"/>
<path d="M15.9989 29.9978C25.3333 29.9978 29.9978 23.7303 29.9978 15.9989C29.9978 8.26751 25.3333 2 15.9989 2C6.66443 2 2 8.26751 2 15.9989C2 23.7303 6.66443 29.9978 15.9989 29.9978Z" fill="url(#paint5_radial_31_136)"/>
<path d="M15.9989 29.9978C25.3333 29.9978 29.9978 23.7303 29.9978 15.9989C29.9978 8.26751 25.3333 2 15.9989 2C6.66443 2 2 8.26751 2 15.9989C2 23.7303 6.66443 29.9978 15.9989 29.9978Z" fill="url(#paint6_radial_31_136)"/>
<path d="M15.9989 29.9978C25.3333 29.9978 29.9978 23.7303 29.9978 15.9989C29.9978 8.26751 25.3333 2 15.9989 2C6.66443 2 2 8.26751 2 15.9989C2 23.7303 6.66443 29.9978 15.9989 29.9978Z" fill="url(#paint7_radial_31_136)"/>
<path d="M7 22C7.5 22.5 8.9 23.5 10.5 23.5C13.5 23.5 14 20 16 20C18 20 18.5 22 21 22C23 22 24.1667 21 24.5 20.5" stroke="#402A32" stroke-width="2" stroke-linecap="round"/>
<path d="M11 19C8.17157 19 7.16667 17.1667 7 16L15 13C15 13 15.5 19 11 19Z" fill="white"/>
<path fill-rule="evenodd" clip-rule="evenodd" d="M20.6095 11.7248C19.2984 11.3606 17.7604 11.6493 17.2837 12.9239C17.1003 13.4144 17 13.9455 17 14.5C17 16.9852 19.0147 19 21.5 19C23.9853 19 26 16.9852 26 14.5V14.5C26 13.6563 25.3077 13.0299 24.4948 12.8041L20.6095 11.7248Z" fill="white"/>
<path fill-rule="evenodd" clip-rule="evenodd" d="M11 17C12.6568 17 14 15.6569 14 14C14 13.7937 13.9791 13.5923 13.9395 13.3977L8.38928 15.479C8.90494 16.3873 9.8809 17 11 17Z" fill="url(#paint8_linear_31_136)"/>
<path fill-rule="evenodd" clip-rule="evenodd" d="M21 17C22.6569 17 24 15.6569 24 14C24 13.4803 23.8679 12.9915 23.6353 12.5653L20.6095 11.7248C20.1505 11.5973 19.6636 11.5498 19.2042 11.5967C18.4731 12.1438 18 13.0166 18 14C18 15.6569 19.3431 17 21 17Z" fill="url(#paint9_linear_31_136)"/>
<path fill-rule="evenodd" clip-rule="evenodd" d="M19.562 6.99624C21.3846 6.76839 22.4796 7.44434 23.1326 8.15172L24.0197 9.63904C24.0962 9.90359 24.3724 10.0566 24.6374 9.98087C24.9029 9.90501 25.0566 9.62827 24.9808 9.36275L24.5 9.50011C24.9808 9.36275 24.9807 9.36248 24.9806 9.36219L24.9804 9.36156L24.98 9.36004L24.9788 9.35605L24.9753 9.34428C24.9724 9.33479 24.9684 9.32203 24.9633 9.30623C24.953 9.27464 24.9381 9.23084 24.918 9.17672C24.8778 9.0686 24.8168 8.91854 24.7306 8.74183C24.5589 8.3897 24.2834 7.92408 23.8674 7.47345C23.0204 6.55581 21.6154 5.73176 19.438 6.00397C19.164 6.03822 18.9696 6.28812 19.0039 6.56213C19.0381 6.83614 19.288 7.0305 19.562 6.99624ZM23.1326 8.15172L24.0196 9.6389L24.0187 9.63588L24.0123 9.61562C24.006 9.59618 23.9955 9.56527 23.9805 9.52466C23.9503 9.44332 23.9019 9.32385 23.8319 9.18024C23.6911 8.89174 23.4666 8.5136 23.1326 8.15172ZM12.9851 9.62131C13.052 9.35342 12.8892 9.08195 12.6213 9.01498C12.3534 8.948 12.0819 9.11088 12.0149 9.37878C11.6544 10.8207 10.8509 11.5276 10.015 11.8605C9.14985 12.2051 8.21031 12.1622 7.62126 12.015C7.35337 11.948 7.0819 12.1109 7.01493 12.3788C6.94795 12.6467 7.11083 12.9181 7.37873 12.9851C8.12302 13.1712 9.28348 13.2283 10.385 12.7896C11.5157 12.3392 12.5455 11.3794 12.9851 9.62131Z" fill="#402A32"/>
<defs>
<radialGradient id="paint0_radial_31_136" cx="0" cy="0" r="1" gradientUnits="userSpaceOnUse" gradientTransform="translate(25.5 9) rotate(132.839) scale(37.5033)">
<stop stop-color="#FFF478"/>
<stop offset="0.474827" stop-color="#FFB02E"/>
<stop offset="1" stop-color="#F70A8D"/>
</radialGradient>
<radialGradient id="paint1_radial_31_136" cx="0" cy="0" r="1" gradientUnits="userSpaceOnUse" gradientTransform="translate(25.5 9) rotate(131.878) scale(38.9487)">
<stop stop-color="#FFF478"/>
<stop offset="0.474827" stop-color="#FFB02E"/>
<stop offset="1" stop-color="#F70A8D"/>
</radialGradient>
<radialGradient id="paint2_radial_31_136" cx="0" cy="0" r="1" gradientUnits="userSpaceOnUse" gradientTransform="translate(16 12.5) rotate(101.31) scale(17.8466 22.8581)">
<stop offset="0.787821" stop-color="#F59639" stop-opacity="0"/>
<stop offset="0.972509" stop-color="#FF7DCE"/>
</radialGradient>
<radialGradient id="paint3_radial_31_136" cx="0" cy="0" r="1" gradientUnits="userSpaceOnUse" gradientTransform="translate(18 14) rotate(135) scale(41.0122)">
<stop offset="0.314853" stop-opacity="0"/>
<stop offset="1"/>
</radialGradient>
<radialGradient id="paint4_radial_31_136" cx="0" cy="0" r="1" gradientUnits="userSpaceOnUse" gradientTransform="translate(16 17) rotate(77.692) scale(28.1469)">
<stop offset="0.507903" stop-color="#7D6133" stop-opacity="0"/>
<stop offset="1" stop-color="#715B32"/>
</radialGradient>
<radialGradient id="paint5_radial_31_136" cx="0" cy="0" r="1" gradientUnits="userSpaceOnUse" gradientTransform="translate(16.5 16.5) rotate(55.7131) scale(13.3135 9.65032)">
<stop stop-color="#FFB849"/>
<stop offset="1" stop-color="#FFB847" stop-opacity="0"/>
</radialGradient>
<radialGradient id="paint6_radial_31_136" cx="0" cy="0" r="1" gradientUnits="userSpaceOnUse" gradientTransform="translate(20.5 18) rotate(9.86581) scale(11.6726)">
<stop stop-color="#FFA64B"/>
<stop offset="0.900412" stop-color="#FFAE46" stop-opacity="0"/>
</radialGradient>
<radialGradient id="paint7_radial_31_136" cx="0" cy="0" r="1" gradientUnits="userSpaceOnUse" gradientTransform="translate(17.5 15) rotate(43.9708) scale(59.0529)">
<stop offset="0.185425" stop-opacity="0"/>
<stop offset="1" stop-opacity="0.4"/>
</radialGradient>
<linearGradient id="paint8_linear_31_136" x1="11.37" y1="12.7973" x2="10.3803" y2="16.8437" gradientUnits="userSpaceOnUse">
<stop stop-color="#553B3E"/>
<stop offset="1" stop-color="#3D2432"/>
</linearGradient>
<linearGradient id="paint9_linear_31_136" x1="21.1875" y1="10.6755" x2="19.2015" y2="16.4455" gradientUnits="userSpaceOnUse">
<stop stop-color="#553B3E"/>
<stop offset="1" stop-color="#3D2432"/>
</linearGradient>
</defs>
</svg>

<svg width="32" height="32" fill="none" xmlns="http://www.w3.org/2000/svg"><path d="M15.999 29.998c9.334 0 13.999-6.268 13.999-14 0-7.73-4.665-13.998-14-13.998C6.665 2 2 8.268 2 15.999c0 7.731 4.664 13.999 13.999 13.999Z" fill="url(#a)"/><path d="M15.999 29.998c9.334 0 13.999-6.268 13.999-14 0-7.73-4.665-13.998-14-13.998C6.665 2 2 8.268 2 15.999c0 7.731 4.664 13.999 13.999 13.999Z" fill="url(#b)"/><path d="M15.999 29.998c9.334 0 13.999-6.268 13.999-14 0-7.73-4.665-13.998-14-13.998C6.665 2 2 8.268 2 15.999c0 7.731 4.664 13.999 13.999 13.999Z" fill="url(#c)"/><path d="M15.999 29.998c9.334 0 13.999-6.268 13.999-14 0-7.73-4.665-13.998-14-13.998C6.665 2 2 8.268 2 15.999c0 7.731 4.664 13.999 13.999 13.999Z" fill="url(#d)" fill-opacity=".6"/><path d="M15.999 29.998c9.334 0 13.999-6.268 13.999-14 0-7.73-4.665-13.998-14-13.998C6.665 2 2 8.268 2 15.999c0 7.731 4.664 13.999 13.999 13.999Z" fill="url(#e)"/><path d="M15.999 29.998c9.334 0 13.999-6.268 13.999-14 0-7.73-4.665-13.998-14-13.998C6.665 2 2 8.268 2 15.999c0 7.731 4.664 13.999 13.999 13.999Z" fill="url(#f)"/><path d="M15.999 29.998c9.334 0 13.999-6.268 13.999-14 0-7.73-4.665-13.998-14-13.998C6.665 2 2 8.268 2 15.999c0 7.731 4.664 13.999 13.999 13.999Z" fill="url(#g)"/><path d="M15.999 29.998c9.334 0 13.999-6.268 13.999-14 0-7.73-4.665-13.998-14-13.998C6.665 2 2 8.268 2 15.999c0 7.731 4.664 13.999 13.999 13.999Z" fill="url(#h)"/><path d="M7 22c.5.5 1.9 1.5 3.5 1.5 3 0 3.5-3.5 5.5-3.5s2.5 2 5 2c2 0 3.167-1 3.5-1.5" stroke="#402A32" stroke-width="2" stroke-linecap="round"/><path d="M11 19c-2.828 0-3.833-1.833-4-3l8-3s.5 6-4 6Z" fill="#fff"/><path fill-rule="evenodd" clip-rule="evenodd" d="M20.61 11.725c-1.312-.364-2.85-.076-3.326 1.199A4.5 4.5 0 1 0 26 14.5c0-.844-.692-1.47-1.505-1.696l-3.886-1.08Z" fill="#fff"/><path fill-rule="evenodd" clip-rule="evenodd" d="M11 17a3 3 0 0 0 2.94-3.602l-5.55 2.081A2.999 2.999 0 0 0 11 17Z" fill="url(#i)"/><path fill-rule="evenodd" clip-rule="evenodd" d="M21 17a3 3 0 0 0 2.635-4.435l-3.026-.84a3.853 3.853 0 0 0-1.405-.128A3 3 0 0 0 21 17Z" fill="url(#j)"/><path fill-rule="evenodd" clip-rule="evenodd" d="M19.562 6.996c1.823-.228 2.918.448 3.57 1.156l.888 1.487a.5.5 0 0 0 .96-.276l-.48.137.48-.138V9.36l-.001-.004-.004-.012a2.608 2.608 0 0 0-.057-.167 5.32 5.32 0 0 0-1.05-1.703c-.848-.918-2.253-1.742-4.43-1.47a.5.5 0 1 0 .124.992Zm3.57 1.156.888 1.487-.001-.003-.007-.02a3.868 3.868 0 0 0-.18-.435 4.328 4.328 0 0 0-.7-1.03Zm-10.147 1.47a.5.5 0 0 0-.97-.243c-.36 1.442-1.164 2.149-2 2.482-.865.344-1.805.301-2.394.154a.5.5 0 1 0-.242.97c.744.186 1.904.243 3.006-.195 1.13-.45 2.16-1.41 2.6-3.169Z" fill="#402A32"/><defs><radialGradient id="a" cx="0" cy="0" r="1" gradientUnits="userSpaceOnUse" gradientTransform="rotate(132.839 10.786 10.065) scale(37.5033)"><stop stop-color="#FFF478"/><stop offset=".475" stop-color="#FFB02E"/><stop offset="1" stop-color="#F70A8D"/></radialGradient><radialGradient id="b" cx="0" cy="0" r="1" gradientUnits="userSpaceOnUse" gradientTransform="rotate(131.878 10.74 10.193) scale(38.9487)"><stop stop-color="#FFF478"/><stop offset=".475" stop-color="#FFB02E"/><stop offset="1" stop-color="#F70A8D"/></radialGradient><radialGradient id="c" cx="0" cy="0" r="1" gradientUnits="userSpaceOnUse" gradientTransform="rotate(101.31 2.876 12.808) scale(17.8466 22.8581)"><stop offset=".788" stop-color="#F59639" stop-opacity="0"/><stop offset=".973" stop-color="#FF7DCE"/></radialGradient><radialGradient id="d" cx="0" cy="0" r="1" gradientUnits="userSpaceOnUse" gradientTransform="matrix(-29 29 -29 -29 18 14)"><stop offset=".315" stop-opacity="0"/><stop offset="1"/></radialGradient><radialGradient id="e" cx="0" cy="0" r="1" gradientUnits="userSpaceOnUse" gradientTransform="rotate(77.692 -2.555 18.434) scale(28.1469)"><stop offset=".508" stop-color="#7D6133" stop-opacity="0"/><stop offset="1" stop-color="#715B32"/></radialGradient><radialGradient id="f" cx="0" cy="0" r="1" gradientUnits="userSpaceOnUse" gradientTransform="rotate(55.713 -7.36 23.86) scale(13.3135 9.65032)"><stop stop-color="#FFB849"/><stop offset="1" stop-color="#FFB847" stop-opacity="0"/></radialGradient><radialGradient id="g" cx="0" cy="0" r="1" gradientUnits="userSpaceOnUse" gradientTransform="matrix(11.49998 2 -2 11.49998 20.5 18)"><stop stop-color="#FFA64B"/><stop offset=".9" stop-color="#FFAE46" stop-opacity="0"/></radialGradient><radialGradient id="h" cx="0" cy="0" r="1" gradientUnits="userSpaceOnUse" gradientTransform="rotate(43.971 -9.827 29.173) scale(59.0529)"><stop offset=".185" stop-opacity="0"/><stop offset="1" stop-opacity=".4"/></radialGradient><linearGradient id="i" x1="11.37" y1="12.797" x2="10.38" y2="16.844" gradientUnits="userSpaceOnUse"><stop stop-color="#553B3E"/><stop offset="1" stop-color="#3D2432"/></linearGradient><linearGradient id="j" x1="21.188" y1="10.675" x2="19.201" y2="16.445" gradientUnits="userSpaceOnUse"><stop stop-color="#553B3E"/><stop offset="1" stop-color="#3D2432"/></linearGradient></defs></svg>
